X: 194
T:Honsup. HA.193
T:Hunt's Up. HA.193
M:6/4
L:1/4
Q:140
C:Hunt's Up."J.A."
S:Henry Atkinson's original MS,Hartburn,N'umberland,1694.
O:England
A:Hartburn,Northumberland
H:1/4
Z:vmp.Neil Brookes, Jan.2004
K:G
D|G2d"="B3/2c/2d|G2"u"d"="B3/2c/2d|\
"u"c2"u"gB2g|"="A2G"="F3/2E/2D|!
"u"G2"u"d"="B3/2c/2d|"u"G2"u"d"="B3/2c/2d|\
cgcB"u"g"u"B|"="A3"u"A2"u"B|!
c3/2d/2e"u"e3/2"u"d/2c|"u"B3/2"u"c/2d"u"d3/2"u"c/2B|\
"="A2"="GF3/2E/2F|"v*"G3G2B|!
"v"c3/2d/2e"u"e3/2"u"d/2c|B3/2c/2d d3/2c/2B|\
"="A2GF3/2E/2F|"v"G3G2:||:!
e/2f/2|"v"g2d"="B3/2c/2d|"v"g2d"="B3/2c/2d|\
"u"c2"u"gB2g|"="A2G"="F3/2E/2D|!
"u"g2d"="B3/2c/2d|"u"g2d"="B3/2c/2d|\
cgcB"u"g"u"B|"="A3A2B|!
cdeedc|BcddcB|"="A2G"="F3/2E/2F|G3G2B|!
cdeedc|BcddcB|"="A2G"="F3/2E/2F|"v"G3G2:|]
